resources/haticons/SVG/grin.svg

<!-- Generated by IcoMoon.io -->
<svg version="1.1" xmlns="http://www.w3.org/2000/svg" width="24" height="24" viewBox="0 0 24 24">
<title>grin</title>
<path d="M12 24c6.627 0 12-5.373 12-12s-5.373-12-12-12-12 5.373-12 12 5.373 12 12 12zM12 2.25c5.385 0 9.75 4.365 9.75 9.75s-4.365 9.75-9.75 9.75-9.75-4.365-9.75-9.75 4.365-9.75 9.75-9.75zM4.5 12v1.5c0 3.3 2.7 6 6 6h3c3.3 0 6-2.7 6-6v-1.5h-15zM9 17.742c-0.622-0.222-1.194-0.582-1.677-1.065-0.853-0.853-1.323-1.981-1.323-3.177h3v4.242zM13.5 18h-3v-4.5h3v4.5zM16.677 16.677c-0.483 0.483-1.055 0.843-1.677 1.065v-4.242h3c0 1.195-0.47 2.324-1.323 3.177zM5.282 9c0 0 0 0 0 0 0.229 0 0.424-0.165 0.462-0.391 0.144-0.86 0.883-1.484 1.756-1.484s1.612 0.624 1.756 1.484c0.038 0.226 0.233 0.391 0.462 0.391s0.424-0.165 0.462-0.391c0.025-0.151 0.038-0.303 0.038-0.453 0-1.499-1.22-2.719-2.719-2.719s-2.719 1.22-2.719 2.719c0 0.149 0.013 0.302 0.038 0.453 0.038 0.226 0.233 0.391 0.462 0.391zM14.282 9c0 0 0 0 0 0 0.229 0 0.424-0.165 0.462-0.391 0.144-0.86 0.883-1.484 1.756-1.484s1.612 0.624 1.756 1.484c0.038 0.226 0.233 0.391 0.462 0.391s0.424-0.165 0.462-0.391c0.025-0.151 0.038-0.303 0.038-0.453 0-1.499-1.22-2.719-2.719-2.719s-2.719 1.22-2.719 2.719c0 0.149 0.013 0.302 0.038 0.453 0.038 0.226 0.234 0.391 0.462 0.391z"></path>
</svg>

<svg xmlns="http://www.w3.org/2000/svg" width="24" height="24"><path d="M12 24c6.627 0 12-5.373 12-12S18.627 0 12 0 0 5.373 0 12s5.373 12 12 12zm0-21.75c5.385 0 9.75 4.365 9.75 9.75s-4.365 9.75-9.75 9.75S2.25 17.385 2.25 12 6.615 2.25 12 2.25zM4.5 12v1.5c0 3.3 2.7 6 6 6h3c3.3 0 6-2.7 6-6V12h-15zM9 17.742a4.517 4.517 0 0 1-1.677-1.065A4.467 4.467 0 0 1 6 13.5h3v4.242zm4.5.258h-3v-4.5h3V18zm3.177-1.323A4.517 4.517 0 0 1 15 17.742V13.5h3c0 1.195-.47 2.324-1.323 3.177zM5.282 9a.468.468 0 0 0 .462-.391c.144-.86.883-1.484 1.756-1.484s1.612.624 1.756 1.484a.468.468 0 0 0 .924 0 2.722 2.722 0 0 0-2.681-3.172 2.722 2.722 0 0 0-2.681 3.172A.468.468 0 0 0 5.28 9zm9 0a.468.468 0 0 0 .462-.391c.144-.86.883-1.484 1.756-1.484s1.612.624 1.756 1.484a.468.468 0 0 0 .924 0 2.722 2.722 0 0 0-2.681-3.172 2.722 2.722 0 0 0-2.681 3.172.469.469 0 0 0 .462.391z"/></svg>
